server/views/icons/actions/download.svg

<svg viewBox="0 0 26 26"><path fill="#1d1d1d" class="icon__shape" d="M20 3h-3a1 1 0 0 0 0 2h3a1 1 0 0 1 1 1v14a1 1 0 0 1-1 1H6a1 1 0 0 1-1-1V6a1 1 0 0 1 1-1h3a1 1 0 0 0 0-2H6a3 3 0 0 0-3 3v14a3 3 0 0 0 3 3h14a3 3 0 0 0 3-3V6a3 3 0 0 0-3-3z"/><path fill="#1d1d1d" class="icon__shape" d="M9.78 12.38a1 1 0 1 0-1.56 1.25l4 5a1 1 0 0 0 1.56 0l4-5a1 1 0 0 0-1.56-1.25L14 15.15V4a1 1 0 1 0-2 0v11.15z"/></svg>

<svg viewBox="0 0 26 26">
  <path fill="#1d1d1d" class="icon__shape" d="M20,3H17a1,1,0,0,0,0,2h3a1,1,0,0,1,1,1V20a1,1,0,0,1-1,1H6a1,1,0,0,1-1-1V6A1,1,0,0,1,6,5H9A1,1,0,0,0,9,3H6A3,3,0,0,0,3,6V20a3,3,0,0,0,3,3H20a3,3,0,0,0,3-3V6A3,3,0,0,0,20,3Z"/>
  <path fill="#1d1d1d" class="icon__shape" d="M9.78,12.38a1,1,0,1,0-1.56,1.25l4,5a1,1,0,0,0,1.56,0l4-5a1,1,0,0,0-1.56-1.25L14,15.15V4a1,1,0,1,0-2,0V15.15Z"/>
</svg>
